images/foilauth.svg

<?xml version="1.0" encoding="UTF-8" standalone="no"?>
<svg version="1.1" viewBox="0 0 86 86" xmlns="http://www.w3.org/2000/svg">
  <rect style="opacity:0;fill:#ffffff" width="86" height="86"/>
  <linearGradient id="gradient" gradientUnits="userSpaceOnUse" x1="12.8" y1="73.2" x2="73.2" y2="12.8">
    <stop offset="0" style="stop-color:#e65100;stop-opacity:1"/>
    <stop offset="1" style="stop-color:#f57c00;stop-opacity:1"/>
  </linearGradient>
  <circle style="fill:url(#gradient)" cx="43" cy="43" r="42.7"/>
  <circle style="opacity:0.9;fill:#fff9c4" cx="43" cy="43" r="32"/>
  <path style="fill:#942a09" d="M 43 24.176 C 36.25 24.176 30.818 29.438 30.818 36.453 L 30.818 38.824 L 29.139 38.824 C 28.177 38.824 27.252 39.697 27.252 40.662 L 27.252 59.953 C 27.252 60.917 28.178 62 29.139 62 L 57.084 62 C 58.045 62 58.748 60.917 58.748 59.953 L 58.748 40.662 C 58.748 39.697 58.045 38.824 57.084 38.824 L 55.182 38.824 L 55.182 36.453 C 55.182 29.438 49.752 24.176 43 24.176 z M 43 29.438 C 46.852 29.438 49.834 31.192 49.834 36.453 L 49.834 38.824 L 36.166 38.824 L 36.166 36.453 C 36.166 31.192 39.149 29.438 43 29.438 z M 42.988 45.25 C 43.358 45.25 43.728 45.286 43.977 45.359 C 45.868 45.915 47 47.854 46.533 49.707 C 46.338 50.467 46.1 50.857 45.438 51.506 L 44.816 52.113 L 45.729 53.951 C 46.386 55.276 46.641 55.86 46.641 56.041 C 46.641 56.437 46.389 56.876 46.047 57.076 L 45.75 57.25 L 42.984 57.25 C 40.4 57.25 40.203 57.241 40 57.117 C 39.555 56.846 39.28 56.274 39.379 55.822 C 39.406 55.7 39.827 54.802 40.314 53.824 L 41.2 52.047 L 41 51.893 C 39.782 51.014 39.191 49.673 39.408 48.3 C 39.625 46.932 40.659 45.758 42 45.359 C 42.249 45.286 42.619 45.25 42.988 45.25 z"/>
</svg>

<?xml version="1.0" encoding="utf-8" standalone="no"?>
<svg version="1.1" viewBox="0 0 86 86" xmlns="http://www.w3.org/2000/svg">
  <defs>
    <linearGradient id="gradient" x1="12.8" y1="73.2" x2="73.2" y2="12.8" gradientUnits="userSpaceOnUse">
      <stop offset="0" style="stop-color:#e65100;stop-opacity:1"/>
      <stop offset="1" style="stop-color:#f57c00;stop-opacity:1"/>
    </linearGradient>
  </defs>
  <rect style="fill:none;opacity:0" width="86" height="86"/>
  <circle style="fill:url(#gradient)" cx="43" cy="43" r="42.7"/>
  <circle style="fill:#fff9c4;opacity:0.8" cx="43" cy="43" r="32"/>
  <path style="fill:#942a09" d="m 43,24.18 c -6.75,0 -12.18,5.26 -12.18,12.28 v 2.37 h -1.68 c -0.96,0 -1.89,0.87 -1.89,1.84 v 19.29 c 0,0.96 0.93,2.05 1.89,2.05 h 27.95 c 0.96,0 1.66,-1.08 1.66,-2.05 v -19.3 c 0,-0.96 -0.7,-1.84 -1.66,-1.84 H 55.18 V 36.45 C 55.18,29.44 49.75,24.18 43,24.18 Z m 0,5.26 c 3.85,0 6.83,1.75 6.83,7.01 v 2.37 H 36.17 v -2.37 c 0,-5.26 2.98,-7.01 6.83,-7.01 z m 0,15.81 c 2.21,0 3.65,1.83 3.65,3.65 0,1.3 -0.7,2.52 -1.85,3.18 L 46.5,55.74 c 0.38,0.84 -0.11,1.51 -0.75,1.51 h -5.5 c -0.67,0 -1.21,-0.7 -0.75,-1.51 l 1.7,-3.66 C 40.03,51.36 39.35,50.22 39.35,48.9 c 0,-1.85 1.48,-3.65 3.65,-3.65 z"/>
</svg>
